bicons/scalable/mime-types/video-m4v.svg

<?xml version="1.0" encoding="UTF-8" standalone="no"?>
<!-- Created with Inkscape (http://www.inkscape.org/) -->

<svg
   xmlns:dc="http://purl.org/dc/elements/1.1/"
   xmlns:cc="http://creativecommons.org/ns#"
   xmlns:rdf="http://www.w3.org/1999/02/22-rdf-syntax-ns#"
   xmlns:svg="http://www.w3.org/2000/svg"
   xmlns="http://www.w3.org/2000/svg"
   xmlns:xlink="http://www.w3.org/1999/xlink"
   xmlns:sodipodi="http://sodipodi.sourceforge.net/DTD/sodipodi-0.dtd"
   xmlns:inkscape="http://www.inkscape.org/namespaces/inkscape"
   width="210mm"
   height="297mm"
   viewBox="0 0 744.09448819 1052.3622047"
   id="svg2"
   version="1.1"
   inkscape:version="0.91 r13725"
   inkscape:export-xdpi="7.1945348"
   inkscape:export-ydpi="7.1945348"
   sodipodi:docname="video-m4v.svg"
   inkscape:export-filename="C:\Users\johannes\Documents\Arbeit\RRZE\github3\bicons\32x32\mime-types\video-m4v.png">
  <defs
     id="defs4">
    <inkscape:perspective
       sodipodi:type="inkscape:persp3d"
       inkscape:vp_x="0 : 526.1811 : 1"
       inkscape:vp_y="0 : 1000 : 0"
       inkscape:vp_z="744.09449 : 526.1811 : 1"
       inkscape:persp3d-origin="372.04724 : 350.7874 : 1"
       id="perspective4169" />
    <linearGradient
       id="linearGradient2224">
      <stop
         id="stop2226"
         offset="0"
         style="stop-color:#7c7c7c;stop-opacity:1;" />
      <stop
         id="stop2228"
         offset="1"
         style="stop-color:#b8b8b8;stop-opacity:1;" />
    </linearGradient>
    <linearGradient
       id="linearGradient15218">
      <stop
         id="stop15220"
         offset="0"
         style="stop-color:#eeeeef;stop-opacity:1;" />
      <stop
         id="stop2736"
         offset="0.59928656"
         style="stop-color:#d3d7cf;stop-opacity:1;" />
      <stop
         id="stop2738"
         offset="0.82758623"
         style="stop-color:#ffffff;stop-opacity:1;" />
      <stop
         id="stop15222"
         offset="1"
         style="stop-color:#d3d7cf;stop-opacity:1;" />
    </linearGradient>
    <pattern
       y="0"
       x="0"
       height="6"
       width="6"
       patternUnits="userSpaceOnUse"
       id="EMFhbasepattern" />
    <pattern
       y="0"
       x="0"
       height="6"
       width="6"
       patternUnits="userSpaceOnUse"
       id="EMFhbasepattern-5" />
    <linearGradient
       inkscape:collect="always"
       xlink:href="#linearGradient4321"
       id="linearGradient4201"
       x1="286.38269"
       y1="672.9209"
       x2="532.51678"
       y2="367.74933"
       gradientUnits="userSpaceOnUse"
       gradientTransform="matrix(1.1363532,0,0,1.1363532,-55.583166,-53.074084)" />
    <linearGradient
       id="linearGradient4321"
       inkscape:collect="always">
      <stop
         id="stop4323"
         offset="0"
         style="stop-color:#4e505d;stop-opacity:1;" />
      <stop
         id="stop4325"
         offset="1"
         style="stop-color:#7a8597;stop-opacity:1" />
    </linearGradient>
  </defs>
  <sodipodi:namedview
     id="base"
     pagecolor="#ffffff"
     bordercolor="#666666"
     borderopacity="1.0"
     inkscape:pageopacity="0.0"
     inkscape:pageshadow="2"
     inkscape:zoom="0.7071068"
     inkscape:cx="292.35545"
     inkscape:cy="362.99667"
     inkscape:document-units="px"
     inkscape:current-layer="layer1"
     showgrid="false"
     showguides="true"
     inkscape:guide-bbox="true"
     inkscape:window-width="1600"
     inkscape:window-height="837"
     inkscape:window-x="-4"
     inkscape:window-y="-4"
     inkscape:window-maximized="1"
     inkscape:snap-bbox="true"
     inkscape:bbox-paths="true"
     inkscape:bbox-nodes="true">
    <sodipodi:guide
       position="560,730.00002"
       orientation="0,1"
       id="guide3338" />
    <sodipodi:guide
       position="560,330.00001"
       orientation="0,1"
       id="guide3340" />
    <sodipodi:guide
       position="190,475.00001"
       orientation="1,0"
       id="guide3344" />
    <sodipodi:guide
       position="590,451.00001"
       orientation="1,0"
       id="guide3346" />
    <inkscape:grid
       type="xygrid"
       id="grid3440" />
  </sodipodi:namedview>
  <metadata
     id="metadata7">
    <rdf:RDF>
      <cc:Work
         rdf:about="">
        <dc:format>image/svg+xml</dc:format>
        <dc:type
           rdf:resource="http://purl.org/dc/dcmitype/StillImage" />
        <dc:title>video m4v</dc:title>
        <dc:date>June 2015</dc:date>
        <dc:creator>
          <cc:Agent>
            <dc:title>Johannes Hechler</dc:title>
          </cc:Agent>
        </dc:creator>
        <dc:rights>
          <cc:Agent>
            <dc:title>Johannes Hechler</dc:title>
          </cc:Agent>
        </dc:rights>
        <dc:publisher>
          <cc:Agent>
            <dc:title>RRZE</dc:title>
          </cc:Agent>
        </dc:publisher>
        <dc:contributor>
          <cc:Agent>
            <dc:title>Ute Weber, Hendrik Eggers</dc:title>
          </cc:Agent>
        </dc:contributor>
      </cc:Work>
    </rdf:RDF>
  </metadata>
  <g
     inkscape:label="Ebene 1"
     inkscape:groupmode="layer"
     id="layer1">
    <rect
       style="fill:none;fill-rule:evenodd;stroke:none;stroke-width:1px;stroke-linecap:butt;stroke-linejoin:miter;stroke-opacity:1"
       id="rect3336"
       width="400"
       height="400"
       x="190"
       y="322.36221"
       inkscape:export-xdpi="3.5999999"
       inkscape:export-ydpi="3.5999999" />
    <rect
       style="fill:none;fill-rule:evenodd;stroke:none;stroke-width:1px;stroke-linecap:butt;stroke-linejoin:miter;stroke-opacity:1"
       id="rect3336-0"
       width="400"
       height="400"
       x="190.04007"
       y="322.41422"
       inkscape:export-xdpi="3.46731"
       inkscape:export-ydpi="3.46731" />
    <path
       inkscape:connector-curvature="0"
       style="fill:url(#linearGradient4201);fill-opacity:1;fill-rule:evenodd;stroke:none;stroke-width:1px;stroke-linecap:butt;stroke-linejoin:miter;stroke-opacity:1"
       d="m 446.39453,322.38477 -195.13672,0.0195 c -11.38911,-0.0191 -17.07144,5.61131 -17.02343,16.83203 -0.031,60.20725 -0.0355,145.6629 -0.0313,230.75586 0.16597,-18.78074 15.88131,-34.4043 34.69532,-34.4043 l 277.86328,0 0,-113.125 c -5.1936,0.47604 -20.79145,1.82483 -38.26953,2.47656 -10.61175,0.39565 -21.67511,0.54541 -31.78321,-0.0684 -5.05405,-0.30687 -9.84436,-0.77476 -14.74023,-1.74609 -4.89588,-0.97134 -6.72004,-0.57783 -13.7207,-6.60742 -6.19763,-5.33794 -7.3876,-13.41968 -7.72266,-22.32813 -0.33507,-8.90845 0.65027,-17.33283 1.75195,-25.95117 2.20336,-17.23667 4.84052,-35.66105 4.24219,-44.08594 l -0.125,-1.76757 z m 35.65625,50.90625 c -0.0523,0.3951 -0.12783,0.89652 -0.17773,1.2871 -0.48825,3.81953 -0.85419,7.37758 -1.0918,10.41016 3.96859,0.21169 8.5956,0.27568 13.56641,0.23828 -2.04702,-2.04541 -3.98331,-4.04269 -6.06446,-6.08398 -2.2399,-2.19699 -4.00316,-3.70652 -6.23242,-5.85156 z m -1.55859,19.02734 c 0.0686,1.71999 0.6109,1.45369 0,0 z m -210.29688,179.26953 0,132.77344 276.56446,0 0,-132.77344 -276.56446,0 z"
       id="path4244" />
    <path
       inkscape:export-ydpi="3.46731"
       inkscape:export-xdpi="3.46731"
       sodipodi:nodetypes="cczc"
       inkscape:connector-curvature="0"
       id="path4288"
       d="m 461.45659,322.38255 c 4.54635,-1.18483 85.25811,76.62516 85.25811,84.98046 0,0 -75.44211,7.35253 -86.90512,-1.29887 -11.46301,-8.65141 3.62243,-55.86651 1.64701,-83.68159 z"
       style="fill:#99b000;fill-opacity:1;fill-rule:evenodd;stroke:none;stroke-width:1px;stroke-linecap:butt;stroke-linejoin:miter;stroke-opacity:1" />
    <path
       sodipodi:nodetypes="sssssss"
       inkscape:connector-curvature="0"
       style="color:#000000;clip-rule:nonzero;display:inline;overflow:visible;visibility:visible;opacity:1;isolation:auto;mix-blend-mode:normal;color-interpolation:sRGB;color-interpolation-filters:linearRGB;solid-color:#000000;solid-opacity:1;fill:#ffffff;fill-opacity:1;fill-rule:evenodd;stroke:none;stroke-width:50;stroke-linecap:butt;stroke-linejoin:miter;stroke-miterlimit:4;stroke-dasharray:none;stroke-dashoffset:0;stroke-opacity:1;color-rendering:auto;image-rendering:auto;shape-rendering:auto;text-rendering:auto;enable-background:accumulate"
       d="m 271.80933,467.80164 c -5.03585,0 -9.08984,4.05398 -9.08984,9.08984 0,5.03586 4.05399,9.08984 9.08984,9.08984 l 218.16016,0 c 5.03586,0 9.08984,-4.05398 9.08984,-9.08984 0,-5.03586 -4.05398,-9.08984 -9.08984,-9.08984 z"
       id="rect4232" />
    <rect
       style="opacity:1;fill:none;fill-opacity:1;stroke:none;stroke-width:23;stroke-linecap:butt;stroke-linejoin:round;stroke-miterlimit:4;stroke-dasharray:none;stroke-opacity:1"
       id="rect4160"
       width="400"
       height="401.25122"
       x="189.73618"
       y="322.17117" />
    <rect
       ry="16.703083"
       y="553.58801"
       x="252.19626"
       height="168.77417"
       width="337.80374"
       id="rect4520"
       style="color:#252525;clip-rule:nonzero;display:inline;overflow:visible;visibility:visible;opacity:1;isolation:auto;mix-blend-mode:normal;color-interpolation:sRGB;color-interpolation-filters:linearRGB;solid-color:#252525;solid-opacity:1;fill:#99b000;fill-opacity:1;fill-rule:nonzero;stroke:none;stroke-width:12;stroke-linecap:butt;stroke-linejoin:round;stroke-miterlimit:4;stroke-dasharray:none;stroke-dashoffset:60.95800018;stroke-opacity:1;color-rendering:auto;image-rendering:auto;shape-rendering:auto;text-rendering:auto;enable-background:accumulate" />
    <text
       xml:space="preserve"
       style="font-style:normal;font-weight:normal;font-size:167.6831665px;line-height:125%;font-family:sans-serif;letter-spacing:0px;word-spacing:0px;fill:#252525;fill-opacity:1;stroke:none;stroke-width:1px;stroke-linecap:butt;stroke-linejoin:miter;stroke-opacity:1"
       x="285.29147"
       y="643.74957"
       id="text4185"
       sodipodi:linespacing="125%"
       transform="scale(0.91436722,1.0936525)"><tspan
         sodipodi:role="line"
         id="tspan4187"
         x="285.29147"
         y="643.74957"
         style="font-style:normal;font-variant:normal;font-weight:bold;font-stretch:normal;font-family:arial;-inkscape-font-specification:'arial Bold';fill:#ffffff">M4V</tspan></text>
  </g>
</svg>

<?xml version="1.0" encoding="UTF-8" standalone="no"?>
<!-- Created with Inkscape (http://www.inkscape.org/) -->

<svg
   xmlns:dc="http://purl.org/dc/elements/1.1/"
   xmlns:cc="http://creativecommons.org/ns#"
   xmlns:rdf="http://www.w3.org/1999/02/22-rdf-syntax-ns#"
   xmlns:svg="http://www.w3.org/2000/svg"
   xmlns="http://www.w3.org/2000/svg"
   xmlns:xlink="http://www.w3.org/1999/xlink"
   xmlns:sodipodi="http://sodipodi.sourceforge.net/DTD/sodipodi-0.dtd"
   xmlns:inkscape="http://www.inkscape.org/namespaces/inkscape"
   width="210mm"
   height="297mm"
   viewBox="0 0 744.09448819 1052.3622047"
   id="svg2"
   version="1.1"
   inkscape:version="0.91 r13725"
   inkscape:export-xdpi="7.1945348"
   inkscape:export-ydpi="7.1945348"
   sodipodi:docname="video-m4v.svg"
   inkscape:export-filename="C:\Users\johannes\Documents\Arbeit\RRZE\github3\bicons\32x32\mime-types\video-m4v.png">
  <defs
     id="defs4">
    <inkscape:perspective
       sodipodi:type="inkscape:persp3d"
       inkscape:vp_x="0 : 526.1811 : 1"
       inkscape:vp_y="0 : 1000 : 0"
       inkscape:vp_z="744.09449 : 526.1811 : 1"
       inkscape:persp3d-origin="372.04724 : 350.7874 : 1"
       id="perspective4169" />
    <linearGradient
       id="linearGradient2224">
      <stop
         id="stop2226"
         offset="0"
         style="stop-color:#7c7c7c;stop-opacity:1;" />
      <stop
         id="stop2228"
         offset="1"
         style="stop-color:#b8b8b8;stop-opacity:1;" />
    </linearGradient>
    <linearGradient
       id="linearGradient15218">
      <stop
         id="stop15220"
         offset="0"
         style="stop-color:#eeeeef;stop-opacity:1;" />
      <stop
         id="stop2736"
         offset="0.59928656"
         style="stop-color:#d3d7cf;stop-opacity:1;" />
      <stop
         id="stop2738"
         offset="0.82758623"
         style="stop-color:#ffffff;stop-opacity:1;" />
      <stop
         id="stop15222"
         offset="1"
         style="stop-color:#d3d7cf;stop-opacity:1;" />
    </linearGradient>
    <pattern
       y="0"
       x="0"
       height="6"
       width="6"
       patternUnits="userSpaceOnUse"
       id="EMFhbasepattern" />
    <pattern
       y="0"
       x="0"
       height="6"
       width="6"
       patternUnits="userSpaceOnUse"
       id="EMFhbasepattern-5" />
    <linearGradient
       inkscape:collect="always"
       xlink:href="#linearGradient4321"
       id="linearGradient4201"
       x1="286.38269"
       y1="672.9209"
       x2="532.51678"
       y2="367.74933"
       gradientUnits="userSpaceOnUse"
       gradientTransform="matrix(1.1363532,0,0,1.1363532,-55.583166,-53.074084)" />
    <linearGradient
       id="linearGradient4321"
       inkscape:collect="always">
      <stop
         id="stop4323"
         offset="0"
         style="stop-color:#4e505d;stop-opacity:1;" />
      <stop
         id="stop4325"
         offset="1"
         style="stop-color:#7a8597;stop-opacity:1" />
    </linearGradient>
  </defs>
  <sodipodi:namedview
     id="base"
     pagecolor="#ffffff"
     bordercolor="#666666"
     borderopacity="1.0"
     inkscape:pageopacity="0.0"
     inkscape:pageshadow="2"
     inkscape:zoom="0.7071068"
     inkscape:cx="252.05036"
     inkscape:cy="346.02611"
     inkscape:document-units="px"
     inkscape:current-layer="layer1"
     showgrid="false"
     showguides="true"
     inkscape:guide-bbox="true"
     inkscape:window-width="1366"
     inkscape:window-height="721"
     inkscape:window-x="-4"
     inkscape:window-y="-4"
     inkscape:window-maximized="1"
     inkscape:snap-bbox="true"
     inkscape:bbox-paths="true"
     inkscape:bbox-nodes="true">
    <sodipodi:guide
       position="560,730.00002"
       orientation="0,1"
       id="guide3338" />
    <sodipodi:guide
       position="560,330.00001"
       orientation="0,1"
       id="guide3340" />
    <sodipodi:guide
       position="190,475.00001"
       orientation="1,0"
       id="guide3344" />
    <sodipodi:guide
       position="590,451.00001"
       orientation="1,0"
       id="guide3346" />
    <inkscape:grid
       type="xygrid"
       id="grid3440" />
  </sodipodi:namedview>
  <metadata
     id="metadata7">
    <rdf:RDF>
      <cc:Work
         rdf:about="">
        <dc:format>image/svg+xml</dc:format>
        <dc:type
           rdf:resource="http://purl.org/dc/dcmitype/StillImage" />
        <dc:title>video m4v</dc:title>
        <dc:date>June 2015</dc:date>
        <dc:creator>
          <cc:Agent>
            <dc:title>Johannes Hechler</dc:title>
          </cc:Agent>
        </dc:creator>
        <dc:rights>
          <cc:Agent>
            <dc:title>Johannes Hechler</dc:title>
          </cc:Agent>
        </dc:rights>
        <dc:publisher>
          <cc:Agent>
            <dc:title>RRZE</dc:title>
          </cc:Agent>
        </dc:publisher>
        <dc:contributor>
          <cc:Agent>
            <dc:title>Ute Weber, Hendrik Eggers</dc:title>
          </cc:Agent>
        </dc:contributor>
      </cc:Work>
    </rdf:RDF>
  </metadata>
  <g
     inkscape:label="Ebene 1"
     inkscape:groupmode="layer"
     id="layer1">
    <g
       id="g4207">
      <rect
         inkscape:export-ydpi="3.5999999"
         inkscape:export-xdpi="3.5999999"
         y="322.36221"
         x="190"
         height="400"
         width="400"
         id="rect3336"
         style="fill:none;fill-rule:evenodd;stroke:none;stroke-width:1px;stroke-linecap:butt;stroke-linejoin:miter;stroke-opacity:1" />
      <rect
         inkscape:export-ydpi="3.46731"
         inkscape:export-xdpi="3.46731"
         y="322.41422"
         x="190.04007"
         height="400"
         width="400"
         id="rect3336-0"
         style="fill:none;fill-rule:evenodd;stroke:none;stroke-width:1px;stroke-linecap:butt;stroke-linejoin:miter;stroke-opacity:1" />
      <path
         id="path4244"
         d="M 446.39453 322.38477 L 251.25781 322.4043 C 239.8687 322.3852 234.18637 328.01561 234.23438 339.23633 C 234.20341 399.44358 234.19886 484.89923 234.20312 569.99219 C 234.36909 551.21145 250.08443 535.58789 268.89844 535.58789 L 546.76172 535.58789 L 546.76172 422.46289 C 541.56812 422.93893 525.97027 424.28772 508.49219 424.93945 C 497.88044 425.3351 486.81708 425.48486 476.70898 424.87109 C 471.65493 424.56422 466.86462 424.09633 461.96875 423.125 C 457.07287 422.15366 455.24871 422.54717 448.24805 416.51758 C 442.05042 411.17964 440.86045 403.0979 440.52539 394.18945 C 440.19032 385.281 441.17566 376.85662 442.27734 368.23828 C 444.4807 351.00161 447.11786 332.57723 446.51953 324.15234 L 446.39453 322.38477 z M 482.05078 373.29102 C 481.99848 373.68612 481.92295 374.18754 481.87305 374.57812 C 481.3848 378.39765 481.01886 381.9557 480.78125 384.98828 C 484.74984 385.19997 489.37685 385.26396 494.34766 385.22656 C 492.30064 383.18115 490.36435 381.18387 488.2832 379.14258 C 486.0433 376.94559 484.28004 375.43606 482.05078 373.29102 z M 480.49219 392.31836 C 480.56079 394.03835 481.10309 393.77205 480.49219 392.31836 z M 270.19531 571.58789 L 270.19531 704.36133 L 546.75977 704.36133 L 546.75977 571.58789 L 270.19531 571.58789 z "
         style="fill:url(#linearGradient4201);fill-opacity:1;fill-rule:evenodd;stroke:none;stroke-width:1px;stroke-linecap:butt;stroke-linejoin:miter;stroke-opacity:1" />
      <path
         style="fill:#99b000;fill-opacity:1;fill-rule:evenodd;stroke:none;stroke-width:1px;stroke-linecap:butt;stroke-linejoin:miter;stroke-opacity:1"
         d="m 461.45659,322.38255 c 4.54635,-1.18483 85.25811,76.62516 85.25811,84.98046 0,0 -75.44211,7.35253 -86.90512,-1.29887 -11.46301,-8.65141 3.62243,-55.86651 1.64701,-83.68159 z"
         id="path4288"
         inkscape:connector-curvature="0"
         sodipodi:nodetypes="cczc"
         inkscape:export-xdpi="3.46731"
         inkscape:export-ydpi="3.46731" />
      <path
         id="rect4232"
         d="m 271.80933,467.80164 c -5.03585,0 -9.08984,4.05398 -9.08984,9.08984 0,5.03586 4.05399,9.08984 9.08984,9.08984 l 218.16016,0 c 5.03586,0 9.08984,-4.05398 9.08984,-9.08984 0,-5.03586 -4.05398,-9.08984 -9.08984,-9.08984 z"
         style="color:#000000;clip-rule:nonzero;display:inline;overflow:visible;visibility:visible;opacity:1;isolation:auto;mix-blend-mode:normal;color-interpolation:sRGB;color-interpolation-filters:linearRGB;solid-color:#000000;solid-opacity:1;fill:#ffffff;fill-opacity:1;fill-rule:evenodd;stroke:none;stroke-width:50;stroke-linecap:butt;stroke-linejoin:miter;stroke-miterlimit:4;stroke-dasharray:none;stroke-dashoffset:0;stroke-opacity:1;color-rendering:auto;image-rendering:auto;shape-rendering:auto;text-rendering:auto;enable-background:accumulate"
         inkscape:connector-curvature="0"
         sodipodi:nodetypes="sssssss" />
      <rect
         y="322.17117"
         x="189.73618"
         height="401.25122"
         width="400"
         id="rect4160"
         style="opacity:1;fill:none;fill-opacity:1;stroke:none;stroke-width:23;stroke-linecap:butt;stroke-linejoin:round;stroke-miterlimit:4;stroke-dasharray:none;stroke-opacity:1" />
      <rect
         style="color:#252525;clip-rule:nonzero;display:inline;overflow:visible;visibility:visible;opacity:1;isolation:auto;mix-blend-mode:normal;color-interpolation:sRGB;color-interpolation-filters:linearRGB;solid-color:#252525;solid-opacity:1;fill:#99b000;fill-opacity:1;fill-rule:nonzero;stroke:none;stroke-width:12;stroke-linecap:butt;stroke-linejoin:round;stroke-miterlimit:4;stroke-dasharray:none;stroke-dashoffset:60.95800018;stroke-opacity:1;color-rendering:auto;image-rendering:auto;shape-rendering:auto;text-rendering:auto;enable-background:accumulate"
         id="rect4520"
         width="337.80374"
         height="168.77417"
         x="252.19626"
         y="553.58801"
         ry="16.703083" />
      <text
         transform="scale(0.91436721,1.0936525)"
         sodipodi:linespacing="125%"
         id="text4185"
         y="643.74957"
         x="285.29147"
         style="font-style:normal;font-weight:normal;font-size:167.6831665px;line-height:125%;font-family:sans-serif;letter-spacing:0px;word-spacing:0px;fill:#252525;fill-opacity:1;stroke:none;stroke-width:1px;stroke-linecap:butt;stroke-linejoin:miter;stroke-opacity:1"
         xml:space="preserve"><tspan
           style="font-style:normal;font-variant:normal;font-weight:bold;font-stretch:normal;font-family:arial;-inkscape-font-specification:'arial Bold';fill:#ffffff"
           y="643.74957"
           x="285.29147"
           id="tspan4187"
           sodipodi:role="line">M4V</tspan></text>
    </g>
  </g>
</svg>
